X:1
T:Qual donna canterà
T:Qual donna canterà
T:Girolamo Scotto
T:Source : Secondo Libro delle Muse a tre voci---Venetia---G.Scotto---1562. Editor : André Vierendeels (04/05/16).
T:Notes : Original clefs : C1, C3, C4 Editorial accidentals above the staff Original note values have been halved Text by Giovanni Boccaccio "Primi toni"
T:©
T:©
T:©
T:©
T:©
C:Girolamo Scotto
Z:©
%%score [ 1 [ 2 3 ] ]
L:1/8
Q:1/4=100
M:2/2
K:F
V:1 treble nm="Soprano" snm="S"
V:2 treble-8 nm="Tenor 1" snm="T 1"
V:3 treble-8 nm="Tenor 2" snm="T 2"
V:1
 z4 G4 | G2 G2 B2 B2 | AGFE D2 F2 | D3 E FG A2 | F2 E4 A2- | AGFE D2 d2- | dc B2 A2 G2- | %7
w: Qual|don- na can- te-|rà _ _ _ _ se|non _ _ _ _|cant' i- *|* * * * o, se|_ _ _ _ non|
 G2 F2 GFED | ED D4 C2 | D2 F2 F2 F2 | E2 G3 FED | C2 F2 E2 c2- | cBAG FE D2- | D2 G2 ABcA | %14
w: _ cant' i- * * *||o, che son con-|ten- * * * *|ta d'o- gni mio|_ _ _ _ _ _ de-|* si- * * * *|
 B2 G3 A B2- | B2 A2 B2 F2 | G2 A2 A2 B2 | G2 G2 A3 B | c2 d3 c c2- | c2 B2 c2 G2 | G2 A2 B2 c2- | %21
w: |* o, vien dun-|que'a- mor ca- gion|d'o- gni mio _|_ _ _ be-|* * ne, d'o-|gni spe- ran- za'et|
 cBAG F2 B2- | BAGF E2 G2- | GF F4 E2 | F2 c2 c3 c | B2 A4 G2 | A2 A2 A2 G2 | A2 F2 E4 | %28
w: _ _ _ _ _ o-|* * * * gni lie-|* * to'ef- fet-|to can- tiam' in-|siem' un po-|co, non de l'a-|ma- te pe-|
 D2 F2 F2 D2- | DE F4 E2 | F2 A2 A3 A | G2 F4 E2 | D3 E F4 | E4 z2 F2 | c3 c B2 A2 | d3 c B2 A2- | %36
w: ne, ne di so-|* * spi- *|ri, ma sol del|chia- ro fuo-||co nel|qual ar- den- do|vi- * * vo'in|
 AG G4 F2 | G3 F/E/ DE F2- | F2 CD _E2 F2 | _E2 D4 C2 | D2 F2 F2 G2 | A2 B2 A3 G | F2 A4 G2 | %43
w: _ _ fest' in|gio- * * * * *|||co, te a- do-|ran- do co- me|mio si- gno-|
 A2 D2 D2 E2 | F2 D2 F3 E | D2 F2 E4 | D2 d2 d2 c2- | c2 B2 A3 G | F3 E D2 G2- |"^#" G2 F2 G4- | %50
w: re, te a- do-|ran- do co- me|mio si- gno-|re, a- do- ran-|* do co- me|mio si- gno- *|* * re.|
 G8 |] %51
w: _|
V:2
 G4 G2 G2 | c2 c2 GABc | d3 c B2 A2 | B3 c d4 | z2 c2 c2 c2 | f2 d3 cBA | G2 G2 A2 B2 | A4 G4 | %8
w: Qual don- na|can- te- rà _ _ _|_ se non cant'|i- * o,|qual don- na|can- te- rà _ _|_ se non cant'|i- o,|
 z8 | z2 A2 A2 A2 | c3 c G2 G2 | A2 c3 BAG | A2 c2 d2 f2- | f2 e2 f3 e | d2 _e2 d4 | c4 z2 d2 | %16
w: |che son con-|ten- ta d'o- gni|mio de- * * *|si- * * *|||o, vien|
 e2 f2 f2 d2 | e3 d e2 f2 | e2 d2 e2 f2 | d4 c2 e2 |"^b" e2 f2 g2 e2 | f3 e dcBA | G2 c2 c2 GB- | %23
w: dun- que'a- mor, vien|dun- que'a- mor ca-|gion d'o- * gni|be- ne, d'o|gni spe- ran- *||za et d'o- gni lie-|
 BA B2 G4 | F2 f2 e3 e | e2 f2 d4 | e2 f2 f2 c2 | c2 d4 c2 | B2 A2 B4- | B2 A2 G4 | A2 c2 c3 c | %31
w: * * to'ef- fet-|to can- tiam' in-|siem' un po-|co, non de l'a-|ma- te pe-|ne, ne di|_ so- spi-|ri, ma sol del|
 B2 d3 c c2- | c2 B2 A2 d2- |"^#" d2 c2 d2 d2 | _e3 e d3 d | d2 GA Bc d2 | c3 B A4 | G4 z4 | z8 | %39
w: chia- ro _ fuo-||* * co, nel|qual ar- den- do|vi- vo'in _ _ _ _|fest' in gio-|co,||
 z8 | z2 d2 d2 e2 | f2 d2 f3 e | dc d2 B4 | A2 B2 B2 c2 | d2 B2 A2 A2 | B2 d4 c2 | d2 d2 d2 e2 | %47
w: |te a- do-|ran- do co- me|mio _ si- gno-|re, te a- do-|ran- do co- me|mio si- gno-|re, a- do- ran-|
 f2 d2 f3 e | d2 c2 =B2 c2 | A4 G4- | G8 |] %51
w: * do co- me|mio si- gno- *|* re.|_|
V:3
 z8 | z8 | D4 D2 D2 | G2 G2 DEFG |"^#" A2 A2 E2 F2 | D4 G4 | z2 E2 ^F2 G2 | D4 G4- | G2 F2 E4 | %9
w: ||Qual don- na|can- te- rà _ _ _|_ se non cant'|i- o,|se non cant'|i- *||
 D8 | z2 C2 C2 C2 | F3 F C2 C2 | F2 F2 B3 A | G4 F4 | G2 C2 G2 D2 | F4 B3 A | G2 F2 D2 G2 | %17
w: o,|che son con-|ten- ta d'o- gni|mio de- si- *||o, vien dun- que'a-|mor, vien _|dun- que'a- mor, vien|
 c3 B A2 D2 | A2 B2 A2 F2 | G4 C4 | z8 | z8 | z8 | z8 | z2 F2 A3 A | G2 F2 B4 | A2 D2 D2 E2 | %27
w: dun- que'a- mor ca-|gion d'o- * gni|be- ne,|||||can- tiam' in-|siem' un po-|co, non de l'a-|
 F2 D2 A4 | D4 z2 G2 | G2 F2 C4 | F8 | z4 z2 C2 | G3 G F2 D2 | A4 D4 | z2 C2 G2 F2 | B3 A G2 D2 | %36
w: ma- te pe-|ne, ne|di so- spi-|ri,|ma|sol del chia- ro|fuo- co,|nel qual ar-|den- do vi- vo'in|
 F2 C2 D4 | G2 G2 G2 A2 | B2 G2 B3 A |"^b" G2 F2 E4 | D4 z4 | z2 D2 D2 D2 | F2 D2 G4 | D2 G4 FE | %44
w: fest' in gio-|co, te a- do-|ran- do co- me|mio si- gno-|re,|te a- do-|ran- do co-|me mio si- *|
 D2 G2 D4 | G2 D2 A4 | D2 B2 B2 A2- | A2 B2 F4 | A2 F2 G2 C2 | D4 G4- | G8 |] %51
w: gno- * *|re, si- gno-|re, a- do- ran-|* do co-|me mio si- *|gno- re.|_|

